packages/theme-chalk/src/icons/pencil.svg

<svg width="14px" height="14px" viewBox="0 0 14 14" version="1.1" xmlns="http://www.w3.org/2000/svg" xmlns:xlink="http://www.w3.org/1999/xlink">
    <g id="Symbols" stroke="none" stroke-width="1" fill-rule="evenodd">
        <g id="icon/default/edit" transform="translate(-5.000000, -5.000000)">
            <path d="M5,16.0837384 L5,19 L7.91626163,19 L16.5172893,10.3989724 L13.6010276,7.48271073 L5,16.0837384 Z M18.7725316,8.14373004 C19.0758228,7.84043883 19.0758228,7.35050687 18.7725316,7.04721566 L16.9527843,5.22746841 C16.6494931,4.9241772 16.1595612,4.9241772 15.85627,5.22746841 L14.4331343,6.65060408 L17.3493959,9.56686571 L18.7725316,8.14373004 Z" fill-rule="nonzero"></path>
        </g>
    </g>
</svg>

<svg xmlns="http://www.w3.org/2000/svg" width="24" height="24" viewBox="0 0 24 24">
    <g fill-rule="evenodd">
        <path fill-rule="nonzero" d="M5 16.084V19h2.916l8.601-8.601-2.916-2.916L5 16.083zm13.773-7.94a.774.774 0 0 0 0-1.097l-1.82-1.82a.774.774 0 0 0-1.097 0l-1.423 1.424 2.916 2.916 1.424-1.423z"/>
    </g>
</svg>
